X:6365
T:the Trip to Durrow
M:4/4
O:Ireland
R:Reel
Z:Richard Robinson 
%%TUNEURL: http://www.leeds.ac.uk/music/Info/RRTuneBk/gettune/00000812.html
%%ID:00000812
K:D
|D2 (3FED ADFA|dfed B3 c|dBBA dBBA|FADE FEEA|\
D2 (3FED ADFA|dfed B3 c|dBBA FAdB|AFEG FD D2::\
dcde fefg|afdf gfed|cdef gebe|gebe geec|\
dcde fefg|afdf gfed|cdef gbag|fdec d3 e|\
fdec d3 e|fded B3 c|dBBA dBBA|FADE FE E2|\
D2 (3FED ADFA|dfed B3 c|dBBA FAdB|AFEG FD D2|
